X: 21609
T: Killavil Bucks, The
R: reel
M: 4/4
K: Dmajor
ADFD ADBD|ADFA BEE2|ADFD A2Bd|(3efg fd eBdB:|
A2fd edfd|A2fd eB~B2|A2fd eafe|1 defd eBdB:|2 defd edBd||
~f3d ~e3d|~f3d edBd|~f3d ~e3c|dcfd edBd|
~f3d ~e3d|~f3d edBA|dfaf gfec|dcdf ecdA||

